!!!!SEGMENT: pl-wnifc--13846--147_anonim--piesni-polskie-i-ruskie-ludu-galicyjskiego-147-na-szczoz-mene-zaczypajesz.krn
!!!kernsource:
!!!cenid: 18xx:3369
!!!COM: Anonim
!!!COM-rismid: pe30004985
!!!CDT:
!!!CNT:
!!!GTL: Pieśni polskie i ruskie ludu galicyjskiego
!!!OTL: 147. Na szczoż mene zaczypajesz
!!!PDT: 1833
!!!AGN:
!!!SMS-siglum: PL-Wnifc
!!!SMS-shelfmark: 13846
!!!SMS-shelfwork: 147 G
!!!NIFC-rismid: 1001039680
!!!URL-scan: http://repozytorium.nifc.pl/skany/pl-wnifc-nut--13846
!!!ONB-nifc:
!!!key:
**kern	**kern	**kern	**text
*part2	*part2	*part1	*part1
*group2	*group2	*group1	*group1
*staff3	*staff2	*staff1	*staff1
*I"[Fortepian.]	*I"[Fortepian.]	*I"[Głos.]	*
*I'	*I'	*I'	*
*Ipiano	*Ipiano	*Ivox	*
*ICklav	*ICklav	*ICvox	*
*IGacmp	*IGacmp	*IGsolo	*
*clefF4	*clefG2	*clefG2	*
*k[]	*k[]	*k[]	*
*a:	*a:	*a:	*
*M2/4	*M2/4	*M2/4	*
=1-	=1-	=1-	=1-
!	!	!LO:TX:a:B:t=E.286.	!
!	!	!LO:TX:a:B:t=Allegretto	!
*^	*	*	*
*clefG2	*	*	*	*
8c/L 8A/	4A\	8ee\L 8cc\|	8ee\	Na
8e/J	.	(16ee\L 16cc\	(16ee\LL	szczoż
.	.	16dd\JJ 16b\)	16dd\JJ)	.
8d/L 8B/ 8G#X/	4G#\	8ff\L 8dd\|	8ff\	me-
8f/J	.	(16ff\L 16dd\	(16ff\LL	-ne
.	.	16ee\JJ 16cc\)	16ee\JJ)	.
=2	=2	=2	=2	=2
8c/L 8A/	4A\	8ee\L 8cc\	8ee\	za-
8e/J	.	(16ee\L 16cc\	(16ee\LL	-czy-
.	.	16dd\JJ 16b\)	16dd\JJ)	.
8d/L 8B/ 8G#X/	4G#\	8ff\L 8dd\	8ff\	-pa-
8f/J	.	8ff\J 8dd\	8ff\	-jesz,
!!linebreak:original
=3	=3	=3	=3	=3
8c/L 8A/	4A\	8ee\L 8cc\	8ee\	ko-
8e/	.	8ee\ 8cc\	8ee\	-ły
8d/ 8B/ 8G#X/	4G#\	8ff\ 8dd\	8ff\	dru-
8f/J	.	8ff\J 8dd\	8ff\	-hu
=4	=4	=4	=4	=4
8c/L 8A/	4A\	8.ee\L	8.ee\	my-
8e/	.	.	.	.
.	.	16dd\Jk	16dd\	-łu
8c/ 8A/	4A\	(16cc\LL	(16cc\LL	ma-
.	.	16b\J)	16b\JJ)	.
8e/J	.	8a/|J	8a/	-jesz,
*v	*v	*	*	*
=5!|:	=5!|:	=5!|:	=5!|:
*clefF4	*	*	*
*tremolo	*	*	*
8d\ 8B\L	8g#X/L	8g#X/	ja
8E\	(16g#/L	(16g#Xi/LL	ne
.	16e/JJ)	16e/JJ)	.
8d\ 8B\	8.e/L	8.e/	mo-
8E\J	.	.	.
.	16g#/Jk	16g#/	-hu
!!linebreak:original
=6	=6	=6	=6
8c\ 8A\L	8a/L	8a/	tak
8E\	8b/J	8b/	jak
8c\ 8A\	4cc\^	4cc\	ty
8E\J	.	.	.
=7	=7	=7	=7
8B\ 8G#X\L	8.ddd\L 8.dd\	8.dd\	po
8E\	.	.	.
.	16eee\Jk 16ee\	16ee\	dwoch
8B\ 8G#X\	8.fff\L 8.ff\	8.ff\	ra-
8E\J	.	.	.
.	16ddd\Jk 16dd\	16dd\	-zom
*Xtremolo	*	*	*
=8	=8	=8	=8
!LO:TX:t=P:problem=mixed beam	!	!	!
8c\L 8A\	8.eee\L 8.ee\	8.ee\	lu-
8E\	.	.	.
.	(32ccc\LL	32cc\LLL	-by-
.	32bb\JJJ)	32b\JJJ	.
8c\ 8A\	4aa\^<	4a/	-ty.
8AA/J	.	.	.
=:|!	=:|!	=:|!	=:|!
*-	*-	*-	*-
!!!system-decoration: g1{g2}
!!!RDF**kern: > = above
!!!RDF**kern: < = below
!!!RDF**kern: | = vertical stroke
!!!RDF**kern: i = editorial accidental
!!!AIN: 1 piano 1 vox
!!!ENC: Katarzyna Serwa
!!!END: 2021-11-12
